!! 00000] TT[WS
!!!OTL: Shenhuir jianshang ni xiaolianlian
!!!ARE: Asia, China, Shanxi Hequ
!! Ethnic Group: Han
!! WII, 29
!!!SCT: J0438
!!!YEM: Copyright 1995, estate of Helmut Schaffrath.
**kern
*ICvox
*Ivox
*M2/4
*k[f#c#]
*D:
{8a
8b
8ee
16b
16a
=1
16f#
16a
16e
16d
16b
8.b
=2
4a
16g
8.a
=3
8b
16b
16ee
8b
16b
16b
=4
2b}
=5
{8a
8b
8ee
16b
16a
=6
16f#
16a
16e
16d
16B
8.B
=7
4a
16g
8.a
=8
8b
16b
16ee
8B
16B
16d
=9
2e}
==
!!!AGN: Shange, Shanqu. Qingge
!!!ONB: ESAC (Essen Associative Code) Database: CHINA
!!!AMT: simple duple
!!!AIN: vox
!!!EED: Helmut Schaffrath
!!!EEV: 1.0
*-
